X: 21163
Q: "Slow."
M: 6/8
L: 1/8
K: Em
EFE G2E | B2E G2E | F2D AFD | dAD AFD |\
EFE G2E | B2E G2E | B/^c/dB AFA | BGE E2 :|
a |\
g/a/bg ege | g/a/bg ege | f/g/af dfd | f/g/af dfd |\
g/a/bg ege | g/a/bg ege | g/a/bg f/g/af | gee e2a |
g/a/bg ege | g/a/bg ege | f/g/af dfd | f/g/af dfd |\
e/f/ge f/g/af | g/a/bg e/f/ge | d/e/fd F/G/AF | BGE E2 |]


